contributed-vectors/simple_draw.svg

<?xml version="1.0" encoding="UTF-8" standalone="no"?>
<svg
   width="192"
   height="192"
   version="1.1"
   viewBox="0 0 192 192"
   id="svg14"
   sodipodi:docname="dessiner.svg"
   inkscape:version="1.1 (c4e8f9ed74, 2021-05-24)"
   xmlns:inkscape="http://www.inkscape.org/namespaces/inkscape"
   xmlns:sodipodi="http://sodipodi.sourceforge.net/DTD/sodipodi-0.dtd"
   xmlns="http://www.w3.org/2000/svg"
   xmlns:svg="http://www.w3.org/2000/svg"
   xmlns:rdf="http://www.w3.org/1999/02/22-rdf-syntax-ns#"
   xmlns:cc="http://creativecommons.org/ns#"
   xmlns:dc="http://purl.org/dc/elements/1.1/">
  <metadata
     id="metadata20">
    <rdf:RDF>
      <cc:Work
         rdf:about="">
        <dc:format>image/svg+xml</dc:format>
        <dc:type
           rdf:resource="http://purl.org/dc/dcmitype/StillImage" />
      </cc:Work>
    </rdf:RDF>
  </metadata>
  <defs
     id="defs18" />
  <sodipodi:namedview
     pagecolor="#ffffff"
     bordercolor="#666666"
     borderopacity="1"
     objecttolerance="10"
     gridtolerance="10"
     guidetolerance="10"
     inkscape:pageopacity="0"
     inkscape:pageshadow="2"
     inkscape:window-width="1904"
     inkscape:window-height="1005"
     id="namedview16"
     showgrid="false"
     inkscape:zoom="3.3697917"
     inkscape:cx="160.09892"
     inkscape:cy="89.026274"
     inkscape:window-x="8"
     inkscape:window-y="39"
     inkscape:window-maximized="1"
     inkscape:current-layer="svg14"
     inkscape:document-rotation="0"
     inkscape:pagecheckerboard="0" />
  <rect
     x="19.999977"
     y="19.999977"
     width="152.00005"
     height="152.00005"
     rx="9.9346428"
     opacity="0.63"
     id="rect2"
     style="fill:#f8c18c;stroke:none;stroke-width:0.999958;stroke-miterlimit:4;stroke-dasharray:none;opacity:1;fill-opacity:1" />
  <g
     id="g1682"
     transform="translate(-2.4828655,9.3922706)">
    <g
       id="g1313"
       transform="matrix(0.12119417,0.12119417,-0.12119417,0.12119417,94.195987,69.890997)"
       style="fill:#ececec;fill-opacity:1;stroke:none">
      <path
         d="M 12.007287,-155.33495 H 161.29719 v 47.87004 H 12.007287 Z m 0,0"
         id="path2"
         style="fill:#ececec;fill-opacity:1;stroke:none;stroke-width:2.82419" />
      <path
         d="M 33.334417,244.43273 V -86.137782 H 12.007287 V 244.43273 c 0,5.88891 4.774653,10.66356 10.663565,10.66356 5.888912,0 10.663565,-4.77465 10.663565,-10.66356 z m 0,0"
         id="path4"
         style="fill:#ececec;fill-opacity:1;stroke:none;stroke-width:1.33295" />
      <path
         d="M 105.41241,340.40481 H 67.89728 l 18.754961,32.16252 z m 0,0"
         id="path6"
         style="fill:#ececec;fill-opacity:1;stroke:none;stroke-width:1.33295" />
      <path
         d="m 142.73489,276.42342 h -2.76483 c -4.74861,-0.0364 -8.88804,-3.25427 -10.09602,-7.84668 l -0.56754,-0.46861 c -12.05379,11.09052 -30.595267,11.09052 -42.654259,0 -12.053786,11.09052 -30.595267,11.09052 -42.65426,0 l -0.562336,0.46861 c -1.207982,4.59241 -5.347403,7.81024 -10.101228,7.84668 h -2.759614 l 24.87818,42.65426 h 62.403727 z m 0,0"
         id="path8"
         style="fill:#ececec;fill-opacity:1;stroke:none;stroke-width:1.33295" />
      <path
         d="M 129.3065,-214.10056 H 43.997981 c -17.666735,0 -31.990694,14.32396 -31.990694,31.99069 v 10.66357 H 161.29719 v -10.66357 c 0,-17.66673 -14.31875,-31.99069 -31.99069,-31.99069 z m 0,0"
         id="path12"
         style="fill:#ececec;fill-opacity:1;stroke:none;stroke-width:1.33295" />
      <path
         d="m 107.97937,255.09629 c 5.88891,0 10.66357,-4.77465 10.66357,-10.66356 V -86.137782 H 97.315805 V 244.43273 c 0,5.88891 4.774655,10.66356 10.663565,10.66356 z m 0,0"
         id="path14"
         style="fill:#ececec;fill-opacity:1;stroke:none;stroke-width:1.33295" />
      <path
         d="m 150.63363,255.09629 c 5.88891,0 10.66356,-4.77465 10.66356,-10.66356 V -86.137782 H 139.97006 V 244.43273 c 0,5.88891 4.77466,10.66356 10.66357,10.66356 z m 0,0"
         id="path16"
         style="fill:#ececec;fill-opacity:1;stroke:none;stroke-width:1.33295" />
      <path
         d="m 65.325111,255.09629 c 5.888912,0 10.663565,-4.77465 10.663565,-10.66356 V -86.137782 H 54.661546 V 244.43273 c 0,5.88891 4.774653,10.66356 10.663565,10.66356 z m 0,0"
         id="path18"
         style="fill:#ececec;fill-opacity:1;stroke:none;stroke-width:1.33295" />
    </g>
    <path
       id="rect1471"
       style="opacity:1;fill:#ececec;stroke-width:2.20256;stroke-linecap:round;stroke-linejoin:round;paint-order:markers fill stroke"
       d="m 60.226716,123.24232 h 76.441904 v 2.3034 H 59.544746 Z"
       sodipodi:nodetypes="ccccc" />
  </g>
</svg>

<svg xmlns="http://www.w3.org/2000/svg" width="192" height="192"><rect width="152" height="152" x="20" y="20" opacity=".63" rx="9.935" style="fill:#f8c18c;stroke:none;stroke-width:.999958;stroke-miterlimit:4;stroke-dasharray:none;opacity:1;fill-opacity:1"/><g style="fill:#ececec;fill-opacity:1;stroke:none"><path d="M12.007-155.335h149.29v47.87H12.007Zm0 0" style="fill:#ececec;fill-opacity:1;stroke:none;stroke-width:2.82419" transform="scale(.1714) rotate(45 -290.831 877.211)"/><path d="M33.334 244.433v-330.57H12.007v330.57c0 5.889 4.775 10.663 10.664 10.663 5.889 0 10.663-4.774 10.663-10.663zM105.412 340.405H67.897l18.755 32.162zM142.735 276.423h-2.765a10.527 10.527 0 0 1-10.096-7.846l-.567-.469c-12.054 11.09-30.596 11.09-42.655 0-12.054 11.09-30.595 11.09-42.654 0l-.562.469a10.529 10.529 0 0 1-10.102 7.846h-2.76l24.879 42.655h62.404zM129.306-214.1H43.998c-17.667 0-31.99 14.323-31.99 31.99v10.664h149.29v-10.664c0-17.667-14.32-31.99-31.992-31.99zM107.98 255.096c5.888 0 10.663-4.774 10.663-10.663v-330.57H97.316v330.57c0 5.889 4.774 10.663 10.663 10.663zM150.634 255.096c5.889 0 10.663-4.774 10.663-10.663v-330.57H139.97v330.57c0 5.889 4.775 10.663 10.664 10.663zM65.325 255.096c5.889 0 10.664-4.774 10.664-10.663v-330.57H54.662v330.57c0 5.889 4.774 10.663 10.663 10.663zm0 0" style="fill:#ececec;fill-opacity:1;stroke:none;stroke-width:1.33295" transform="scale(.1714) rotate(45 -290.831 877.211)"/></g><path d="M60.227 123.242h76.442v2.304H59.545Z" style="opacity:1;fill:#ececec;stroke-width:2.20256;stroke-linecap:round;stroke-linejoin:round;paint-order:markers fill stroke" transform="translate(-2.483 9.392)"/></svg>
